src/icons/blockchains/dark/acala.svg

<svg width="24" height="24" viewBox="0 0 24 24" fill="none" xmlns="http://www.w3.org/2000/svg">
  <rect width="24" height="24" rx="12" fill="#080530" />
  <mask
    id="mask0_1131_18502"
    style="mask-type: alpha"
    maskUnits="userSpaceOnUse"
    x="4"
    y="4"
    width="16"
    height="16"
  >
    <rect x="4" y="4" width="16" height="16" fill="#D9D9D9" />
  </mask>
  <g mask="url(#mask0_1131_18502)">
    <path
      fill-rule="evenodd"
      clip-rule="evenodd"
      d="M11.4609 5L18.717 17.5954L19.5004 16.2452L13.0166 5H11.4609Z"
      fill="white"
    />
    <path
      fill-rule="evenodd"
      clip-rule="evenodd"
      d="M4.5 16.218L10.7116 5.43945L10.7227 5.46168L10.7338 5.43945L18.101 18.2182H16.5453L14.6841 14.9901C13.8395 14.7234 12.9395 14.579 12.0061 14.579C11.5227 14.579 11.056 14.6123 10.6004 14.679L11.495 13.1233C11.6616 13.1178 11.8339 13.1122 12.0061 13.1122C12.5784 13.1122 13.134 13.1567 13.684 13.2455L10.7282 8.11743L5.27784 17.5681L4.5 16.218Z"
      fill="white"
    />
    <path
      fill-rule="evenodd"
      clip-rule="evenodd"
      d="M8.72305 16.0563L11.5177 11.2114L10.7399 9.86133L5.92285 18.2175H7.47852L7.49519 18.1897C8.82862 17.3841 10.3621 16.9785 12.0344 16.9785C13.1011 16.9785 14.129 17.1675 15.0735 17.5119L14.029 15.7062C13.3678 15.5784 12.7011 15.5118 12.0288 15.5118C10.8732 15.5118 9.76202 15.7062 8.72305 16.0563Z"
      fill="white"
    />
  </g>
</svg>

<svg
  xmlns="http://www.w3.org/2000/svg"
  width="24"
  height="24"
  fill="none"
  xmlns:v="https://vecta.io/nano"
>
  <rect width="24" height="24" rx="12" fill="#080530" />
  <mask id="A" maskUnits="userSpaceOnUse" x="4" y="4" width="16" height="16" mask-type="alpha">
    <path fill="#d9d9d9" d="M4 4h16v16H4z" />
  </mask>
  <g mask="url(#A)">
    <path
      fill-rule="evenodd"
      d="M11.461 5l7.256 12.595.783-1.35L13.017 5h-1.556zM4.5 16.218l6.212-10.779.011.022.011-.022 7.367 12.779h-1.556l-1.861-3.228a8.88 8.88 0 0 0-2.678-.411c-.483 0-.95.033-1.406.1l.895-1.556.511-.011c.572 0 1.128.045 1.678.133l-2.956-5.128-5.45 9.451-.778-1.35zm4.223-.162l2.795-4.845-.778-1.35-4.817 8.356h1.556l.017-.028c1.333-.806 2.867-1.211 4.539-1.211a8.88 8.88 0 0 1 3.039.533l-1.044-1.806a10.52 10.52 0 0 0-2-.194 10.31 10.31 0 0 0-3.306.545z"
      fill="#fff"
    />
  </g>
</svg>
